X:1017
T:Baille de Panderu (CT 262)
R:Panderu
C:Tradicional
S:Música Tradicional Asturiana, (C) Tello & Tito. Asturies, 2001.
S:http://pagina.de/MusTradAst <telloytito@asturies.org>
N:Canción de baile de pandero, transcrita en Casomera, ayuntamiento de Ayer.
O:Casomera (Ayer)
A:Asturies
Z:Cancioneru de Torner 262
M:6/8
L:1/8
Q:3/8=88
W:Pa cantar, viva Pravia,
W:pa baillar, Cuideiru,
W:pa trabayar el campu
W:vivan las de xunta Uviéu.
K:G
|Bdd ddc|d2c- c3|cBA Gcc|c2c- c2z|
GBB BAG|B2B- B3|GGG GGF|B2B- B3-|B2 z4||


